img/tw.svg

<svg width="26" height="26" viewBox="0 0 26 26" fill="none" xmlns="http://www.w3.org/2000/svg">
<path d="M26 13C26 20.1797 20.1797 26 13 26C5.8203 26 0 20.1797 0 13C0 5.8203 5.8203 0 13 0C20.1797 0 26 5.8203 26 13Z" fill="#D2D5D3"/>
<g clip-path="url(#clip0)">
<path d="M20 8.65913C19.4794 8.8875 18.9246 9.03887 18.3462 9.11237C18.9412 8.75712 19.3954 8.19887 19.6089 7.526C19.0541 7.85675 18.4416 8.09038 17.7889 8.22075C17.2621 7.65988 16.5114 7.3125 15.6924 7.3125C14.1034 7.3125 12.8241 8.60225 12.8241 10.1834C12.8241 10.4109 12.8434 10.6296 12.8906 10.8379C10.5045 10.7215 8.39313 9.57788 6.97475 7.83575C6.72712 8.26538 6.58188 8.75713 6.58188 9.2865C6.58188 10.2805 7.09375 11.1616 7.85675 11.6718C7.39562 11.663 6.94325 11.5291 6.56 11.3183C6.56 11.327 6.56 11.3384 6.56 11.3498C6.56 12.7445 7.55487 13.903 8.8595 14.1699C8.62587 14.2337 8.37125 14.2644 8.107 14.2644C7.92325 14.2644 7.73775 14.2539 7.56362 14.2154C7.9355 15.352 8.99075 16.1876 10.2455 16.2148C9.269 16.9786 8.02912 17.4389 6.68688 17.4389C6.4515 17.4389 6.22575 17.4284 6 17.3995C7.27137 18.2194 8.77813 18.6875 10.403 18.6875C15.6845 18.6875 18.572 14.3125 18.572 10.5202C18.572 10.3934 18.5676 10.2709 18.5615 10.1493C19.1311 9.745 19.6097 9.24013 20 8.65913Z" fill="white"/>
</g>
<defs>
<clipPath id="clip0">
<rect width="14" height="14" fill="white" transform="translate(6 6)"/>
</clipPath>
</defs>
</svg>

<svg width="26" height="26" fill="none" xmlns="http://www.w3.org/2000/svg"><path d="M26 13c0 7.18-5.82 13-13 13S0 20.18 0 13 5.82 0 13 0s13 5.82 13 13z" fill="#D2D5D3"/><g clip-path="url(#clip0)"><path d="M20 8.66a6.002 6.002 0 01-1.654.452 2.854 2.854 0 001.263-1.586 5.737 5.737 0 01-1.82.695 2.87 2.87 0 00-4.965 1.963c0 .227.02.446.067.654a8.124 8.124 0 01-5.916-3.002 2.874 2.874 0 00.882 3.836 2.836 2.836 0 01-1.297-.354v.032c0 1.395.995 2.553 2.3 2.82a2.868 2.868 0 01-.753.094c-.184 0-.37-.01-.543-.049a2.898 2.898 0 002.681 2 5.767 5.767 0 01-3.558 1.224c-.236 0-.461-.01-.687-.04a8.08 8.08 0 004.403 1.288c5.281 0 8.169-4.375 8.169-8.167 0-.127-.004-.25-.01-.37A5.728 5.728 0 0020 8.66z" fill="#fff"/></g><defs><clipPath id="clip0"><path fill="#fff" transform="translate(6 6)" d="M0 0h14v14H0z"/></clipPath></defs></svg>
